X:1
T:Careless Love
C:W. C. Handy
Z:Copyright © www.realbook.site
L:1/4
M:2/2
I:linebreak $
K:F
V:1 treble nm=" " snm=" "
V:1
"F" A3 F |"C7" E C E G |"F" F4- | F z z2 |$"F" A3 B |"F" c c"D7" d c |"G7" G4- |"C7" G z z2 ||$ %8
"F" A3 B |"F7" c3 c |"Bb" d2 B2 |"Bbm" F3 B |$"F" A3 F |"C7" E C E G |"F" F4- | F z z2 |] %16

